X:1
T:Evening Prayer (Von Weber), 87.87
T:Evening Prayer (Von Weber), 87.87
T:Carl Maria von Weber (1786-1826)
T:Public Domain Courtesy of the Cyber Hymnal™
C:Carl Maria von Weber (1786-1826)
Z:Public Domain
Z:Courtesy of the Cyber Hymnal™
%%score ( 1 2 ) ( 3 4 )
L:1/8
Q:1/4=100
M:2/4
K:Eb
V:1 treble 
V:2 treble 
V:3 bass 
V:4 bass 
V:1
 [EG]2 [EB]2 | [^Fc]2 [GB]2 | A3 (c/B/) | [FA]2 [EG]2 | [FB]2 [Fc]2 | d3 (z f/e/) | [Ec]2 [Ec]2 | %7
 z2 [FA]2 | G3 (z c/B/) | B>A [DF]2 | [EG]2 (E/F/) (c/B/) | (B>A) [DF]2 | e3 [Be] | %13
 (f/e/d/c/)B/A/ (G/F/) | E2 (G>F) | E4 |] %16
V:2
 x4 | x4 | (ED C)B, | x4 | x4 | F2 G2 x | x4 | [DB]4 | E2 E2 x | D2 x2 | x2 E2 | E2 x2 | (EF G) x | %13
 A2 FC | (B,E) D2 | E4 |] %16
V:3
 [E,B,]2 [E,G,]2 | [E,=A,]2 (B,G,) | [B,,F,]3 [B,,B,] | B,2 [E,B,]2 | [D,B,]2 [F,=A,]2 | %5
 B,2 [E,C]2 x | [F,=A,]2 [F,A,]2 | [B,,B,]4 | [E,B,]2 [E,G,]2 x | [B,,F,]2 [B,,B,]2 | %10
 [E,B,]2 [E,G,]2 | [B,,F,]2 [B,,A,]2 | (G,A, B,)[E,_D] | C2 A,[A,,A,] | [B,,G,]2 [B,,A,]2 | %15
 [E,G,]4 |] %16
V:4
 x4 | x2 E,2 | x4 | (B,,C,/D,/) x2 | x4 | B,2 x3 | x4 | x4 | x5 | x4 | x4 | x4 | E,3 x | A,,3 x | %14
 x4 | x4 |] %16

